X:6754
T:Hanter dro
D:transcribed from: CD "Spin", PANIC ATC, PATCCD20294
G:Whirling Pope Joan 
Z:abc transcription Simon Wascher
N:please mail errors to simon.wascher@chello.at
M:2/4
L:1/8
K:Gm
BA/B/ GF/G/ B/G/F/G/|BA/B/ B/G/c/A/ BG|G/B/A/B/ GF/G/ GF/G/|1BA/B/ c/A/B A G/A/:|2BA/B/ c/A/B A/d/c/B/||
Gd/c/ de c/e/d|cd/c/ BG c/B/A| Gd/c/ de c/e/d|cB/c/ dc B/A/G|
Gd/c/ de c/e/d|cd/c/ BG c/B/A| Gd/c/ de c/e/d|cB/c/ dc B/A/G|]
